packages/admin/admin-icons/icons/wrench.svg

<svg xmlns="http://www.w3.org/2000/svg" width="16" height="16" viewBox="0 0 16 16"><path fill="#242424" fill-rule="evenodd" d="M5,0 C7.76142375,0 10,2.23857625 10,5 C10,5.59266555 9.89658781,6.1711289 9.6980502,6.71486931 L9.619,6.912 L12.6639446,9.95675343 C12.8592042,10.1520182 12.8592,10.4686006 12.6639352,10.6638602 C12.4903666,10.8374243 12.2209419,10.8567059 12.0260756,10.7217072 L11.9568285,10.6638509 L8.66798844,7.37492382 C8.51543531,7.22236665 8.47793952,6.98916347 8.57498199,6.79647484 C8.85315149,6.24413833 9,5.6331033 9,5 C9,2.790861 7.209139,1 5,1 C4.92028334,1 4.84090139,1.00232602 4.76192262,1.00695271 L4.717,1.01 L5.85356441,2.14645763 C5.92857357,2.22147146 5.97728685,2.31786446 5.9937718,2.42131376 L6,2.5 L6,4.25 C6,4.3560866 5.96628581,4.45869717 5.90479082,4.54350724 L5.85355339,4.60355339 L4.60355339,5.85355339 C4.52853884,5.92856794 4.43214268,5.97728504 4.32868937,5.9937713 L4.25,6 L2.5,6 C2.39391772,6 2.29131104,5.96628855 2.2065028,5.90479811 L2.14645763,5.85356441 L1.01,4.717 L1.00695271,4.76192262 L1,5 C1,7.209139 2.790861,9 5,9 C5.6331033,9 6.24413833,8.85315149 6.79647484,8.57498199 C6.96163652,8.49180273 7.156564,8.5074679 7.3049579,8.60970965 L7.37492382,8.66798844 L13.5,14.793 L15.1464466,13.1464466 C15.320013,12.9728803 15.5894374,12.9535951 15.7843055,13.0885912 L15.8535534,13.1464466 C16.0271197,13.320013 16.0464049,13.5894374 15.9114088,13.7843055 L15.8535534,13.8535534 L13.8535534,15.8535534 C13.6799887,16.0271181 13.4105673,16.0464047 13.2156993,15.9114121 L13.1464513,15.8535581 L6.911,9.619 L6.71486931,9.6980502 C6.2617523,9.86349821 5.78452214,9.9628869 5.29505425,9.99142068 L5,10 C2.23857625,10 0,7.76142375 0,5 C0,4.50287898 0.0727122603,4.01494684 0.214269844,3.54786824 C0.315394903,3.21419943 0.711212746,3.09127525 0.981583148,3.28439883 L1.04631912,3.339325 L2.707,5 L4.042,5 L5,4.042 L5,2.707 L3.339325,1.04631912 C3.09279551,0.799774269 3.17108906,0.392770288 3.46890249,0.245447405 L3.54786824,0.214269844 C4.01494684,0.0727122603 4.50287898,0 5,0 Z"/></svg>

<svg width="16" height="16" fill="none" viewBox="0 0 16 16">
  <path fill="#242424" fill-rule="evenodd" d="M5 .001a5 5 0 0 1 4.698 6.715l-.079.197 3.045 3.045a.5.5 0 0 1-.638.765l-.07-.058-3.288-3.29a.5.5 0 0 1-.093-.578 4 4 0 0 0-3.813-5.79l-.045.004 1.137 1.136a.5.5 0 0 1 .14.275L6 2.501v1.75a.5.5 0 0 1-.095.293l-.051.06-1.25 1.25a.5.5 0 0 1-.275.14l-.079.007H2.5a.5.5 0 0 1-.293-.095l-.06-.051L1.01 4.718l-.003.045L1 5a4 4 0 0 0 5.796 3.575.5.5 0 0 1 .509.035l.07.058 6.125 6.125 1.646-1.647a.5.5 0 0 1 .638-.057l.07.057a.5.5 0 0 1 .057.638l-.057.07-2 2a.5.5 0 0 1-.638.057l-.07-.058L6.911 9.62l-.196.079a4.98 4.98 0 0 1-1.42.293L5 10.001A5 5 0 0 1 .214 3.549a.5.5 0 0 1 .768-.264l.064.055 1.661 1.661h1.335L5 4.043V2.708l-1.66-1.66a.5.5 0 0 1 .129-.802l.079-.03A5 5 0 0 1 5 0Z" clip-rule="evenodd"/>
</svg>
